X:129
T:Way to Get Married. JC.129
R:Jig
S:John Clare,Poet,Helpston. (1793-1864)
N:MS includes Dance Instructions.
O:England
A:Northamptonshire
Z:vmp.P. Headford
M:6/8
L:1/8
Q:3/8=120
K:A
ABA cd2|efe efg|\
agf edc|BcA BGE|!
ABAc2d|efe efg|agf edc|A3:|!
|:EFEG2A|BGe BGE|ABAc2d|eca ecA|!
fgff2g|agfe3|ege eae|dcBA3:|

